svgs/thin/clone.svg

<svg xmlns="http://www.w3.org/2000/svg" viewBox="0 0 512 512"><!--! Font Awesome Pro 6.6.0 by @fontawesome - https://fontawesome.com License - https://fontawesome.com/license (Commercial License) Copyright 2024 Fonticons, Inc. --><path d="M64 496l224 0c26.5 0 48-21.5 48-48l0-64 16 0 0 64c0 35.3-28.7 64-64 64L64 512c-35.3 0-64-28.7-64-64L0 224c0-35.3 28.7-64 64-64l64 0 0 16-64 0c-26.5 0-48 21.5-48 48l0 224c0 26.5 21.5 48 48 48zM176 288c0 26.5 21.5 48 48 48l224 0c26.5 0 48-21.5 48-48l0-224c0-26.5-21.5-48-48-48L224 16c-26.5 0-48 21.5-48 48l0 224zm-16 0l0-224c0-35.3 28.7-64 64-64L448 0c35.3 0 64 28.7 64 64l0 224c0 35.3-28.7 64-64 64l-224 0c-35.3 0-64-28.7-64-64z"/></svg>

<svg xmlns="http://www.w3.org/2000/svg" viewBox="0 0 512 512"><!--! Font Awesome Pro 6.5.2 by @fontawesome - https://fontawesome.com License - https://fontawesome.com/license (Commercial License) Copyright 2024 Fonticons, Inc. --><path d="M64 496H288c26.5 0 48-21.5 48-48V384h16v64c0 35.3-28.7 64-64 64H64c-35.3 0-64-28.7-64-64V224c0-35.3 28.7-64 64-64h64v16H64c-26.5 0-48 21.5-48 48V448c0 26.5 21.5 48 48 48zM176 288c0 26.5 21.5 48 48 48H448c26.5 0 48-21.5 48-48V64c0-26.5-21.5-48-48-48H224c-26.5 0-48 21.5-48 48V288zm-16 0V64c0-35.3 28.7-64 64-64H448c35.3 0 64 28.7 64 64V288c0 35.3-28.7 64-64 64H224c-35.3 0-64-28.7-64-64z"/></svg>
